svg/add-node.svg

<?xml version="1.0" encoding="UTF-8"?>
<svg xmlns="http://www.w3.org/2000/svg" xmlns:xlink="http://www.w3.org/1999/xlink" width="32" height="32" viewBox="0 0 32 32">
<path fill-rule="nonzero" fill="rgb(0%, 0%, 0%)" fill-opacity="1" d="M 12.160156 0 C 8.980469 0.00390625 6.402344 2.582031 6.398438 5.761719 C 6.398438 8.71875 8.644531 11.164062 11.519531 11.484375 L 11.519531 28.800781 L 19.839844 28.800781 L 19.839844 30.71875 L 24.960938 30.71875 L 24.960938 25.601562 L 19.839844 25.601562 L 19.839844 27.519531 L 12.800781 27.519531 L 12.800781 21.761719 L 19.839844 21.761719 L 19.839844 23.679688 L 24.960938 23.679688 L 24.960938 18.558594 L 19.839844 18.558594 L 19.839844 20.480469 L 12.800781 20.480469 L 12.800781 14.71875 L 19.839844 14.71875 L 19.839844 16.640625 L 24.960938 16.640625 L 24.960938 11.519531 L 19.839844 11.519531 L 19.839844 13.441406 L 12.800781 13.441406 L 12.800781 11.484375 C 15.675781 11.164062 17.921875 8.71875 17.921875 5.761719 C 17.917969 2.582031 15.339844 0.00390625 12.160156 0 M 11.519531 3.199219 L 12.800781 3.199219 L 12.800781 5.121094 L 14.71875 5.121094 L 14.71875 6.398438 L 12.800781 6.398438 L 12.800781 8.320312 L 11.519531 8.320312 L 11.519531 6.398438 L 9.601562 6.398438 L 9.601562 5.121094 L 11.519531 5.121094 Z M 21.121094 12.800781 L 23.679688 12.800781 L 23.679688 15.359375 L 21.121094 15.359375 Z M 21.121094 19.839844 L 23.679688 19.839844 L 23.679688 22.398438 L 21.121094 22.398438 Z M 21.121094 26.878906 L 23.679688 26.878906 L 23.679688 29.441406 L 21.121094 29.441406 Z M 21.121094 26.878906 "/>
</svg>

<svg role="img" viewBox="0 0 32 32" xmlns="http://www.w3.org/2000/svg"><path d="M12.16 0a5.77 5.77 0 0 0-5.762 5.762c0 2.957 2.247 5.402 5.122 5.722v17.317h8.32v1.918h5.12v-5.117h-5.12v1.918H12.8v-5.758h7.04v1.918h5.12v-5.121h-5.12v1.921H12.8v-5.76h7.04v1.922h5.12V11.52h-5.12v1.921H12.8v-1.957c2.876-.32 5.122-2.765 5.122-5.722A5.77 5.77 0 0 0 12.16 0m-.64 3.2h1.28v1.92h1.919v1.277H12.8V8.32h-1.28V6.398H9.602V5.121h1.918Zm9.601 9.6h2.559v2.56h-2.56Zm0 7.04h2.559v2.558h-2.56Zm0 7.039h2.559v2.562h-2.56Zm0 0" fill="rgb(0%, 0%, 0%)"/></svg>
